X: 19617
T: Japanese, The
R: hornpipe
M: 4/4
K: Amajor
cd|:(3efe ^de =de c2|(3BcB AB GBF2|EFGA Bcde|(3gfe ^de c2c=d|
(3efe ^de =de c2|(3BcB AB GB F2|EFGA Bcde|1 (3gfe dB A2 cd:|2 (3gfe dB A2ea||
|:c'a c'4 (3eac'|!open!e'2 b4 df|be b2b2 (3dfb|!open!e'2 a4 ea|
c'a c'4 (3eac'|!open!e'2 b4 ea|gfg2 ge (3dcB|A6 ea||
c'e (3abc' ec' ec'|e'b ba b2 df|bd f/f/b df bc'|e'a ae a2 ea|
c'e (3abc' ec' ec'|e'b ba b2 ea|gfg2 ge (3dcB|A6||

